!!!SOCIAL_FUNCTION:	songs of the sun dance
!!!PDT:	1918

Specific Region: Dakotas, Minnesota, Montana, Nebraska
!!!REG: Dakotas and Montana
!!!LING_GROUP: Siouan
!!!LANG: Tone
!!!OTL@ENG: Song Concerning the Sun and Moon
!!!ONM: No. 25
**kern
*Imale
*clefF4
*k[b-e-a-d-g-c-]
*M2/4
*MM58
8g-
8g-
8g-
8g-
=1||
*M3/4
16a-
8.g-
16g-
8.e-
(8e-
8d-)
=2||
*M2/4
8B-
8d-
8d-
8d-
=3||
*M3/4
16e-
8.d-
16d-
8.B-
(8B-
8A-)
=4||
*M2/4
8G-
8G-
8G-
8G-
=5||
*M3/4
16A-
8.G-
16G-
8.E-
(8E-
8D-)
=6||
*M2/4
8BB-
8D-
8D-
8D-
=7||
*M3/4
16E-
8.D-
16D-
8.BB-
4BB-
=8
4BB-
2BB-
==
*-
!!!CNT: Native American -- Sioux
!!!MRD: 1911/07//-1914///
!!!OCL: Frances Densmore
!!!YOR1: Teton Sioux Music, Bulletin 61,
!!!YOR2: Bureau of American Ethnology, Smithsonian Institution
!!!PPR: Government Printing Office
!!!PPP: Washington, D.C.
!!!PDT: 1918///
!!!ENC: Craig Stuart Sapp
!!!END: 2002/03/25/
!!!EEV: 2002/03/31/
!!!AGN: Ceremonial Song/Song of the Sun Dance
!!!MPN@@SIO: Zintka'la-lu'ta
!!!MPN@ENG: Red Bird
!!!TXO: Teton Sioux
!!!MLC: Standing Rock Reservation, South Dakota, United States of America
!!!ARL: 45.9/-100.7#
!!!catalog: Catalogue No. 504
!!!PPG: 139
!!!EFL: 25/245
!!!VTS: 2250974033
